X:1
T:Paddy's Trip to Scotland
R:reel
G:fiddle reel
S:Micheal Bogner
M:C|
Q:1/2=120
K:D
%%MIDI chordprog violin
%%MIDI gchord czczczcz
dAAA BAGF| GABd cABc| dded cABc| dfed cABc|
dAAA BAGF| GABd cABc| dded cABc| dfed cABc ::
Adfd Adfd| Adfd dcBc| Acec Acec| Acec dcBc|
Adfd Adfd| Adfd dcB^G| aAAA dcBA| Bdec BFDG :|
